svgs/sharp-solid/shop-lock.svg

<svg xmlns="http://www.w3.org/2000/svg" viewBox="0 0 640 512"><!--! Font Awesome Pro 6.6.0 by @fontawesome - https://fontawesome.com License - https://fontawesome.com/license (Commercial License) Copyright 2024 Fonticons, Inc. --><path d="M0 192l449.6 0c20.2-19.8 47.9-32 78.4-32s58.2 12.2 78.4 32l33.6 0 0-64L544 0 96 0 0 128l0 64zm384 32l-64 0 0 160-192 0 0-160-64 0 0 160 0 128 320 0 0-128 0-96.3 0-63.7zm144 16c17.7 0 32 14.3 32 32l0 48-64 0 0-48c0-17.7 14.3-32 32-32zm-80 32l0 48-32 0 0 192 224 0 0-192-32 0 0-48c0-44.2-35.8-80-80-80s-80 35.8-80 80z"/></svg>

<svg xmlns="http://www.w3.org/2000/svg" viewBox="0 0 640 512"><!--! Font Awesome Pro 6.4.2 by @fontawesome - https://fontawesome.com License - https://fontawesome.com/license (Commercial License) Copyright 2023 Fonticons, Inc. --><path d="M0 192H449.6c20.2-19.8 47.9-32 78.4-32s58.2 12.2 78.4 32H640V128L544 0H96L0 128v64zm384 32H320V384H128V224H64V384 512H384V384 287.7 224zm144 16c17.7 0 32 14.3 32 32v48H496V272c0-17.7 14.3-32 32-32zm-80 32v48H416V512H640V320H608V272c0-44.2-35.8-80-80-80s-80 35.8-80 80z"/></svg>
